X: 39602
T: Tell Her I Am
R: jig
M: 6/8
K: Gmajor
|:edB ~G3|DED ~G3|DED c2 A|BGE E B/c/d|
edB ~G3|DED ~G3|AGF GBA|1 GFE D B/c/d:|2 GFE D2 d||
|:~B3 dBG|~B3 dBG|~A3 AGA|BGE E2 c|~B3 deg|
bge d2 c|~B3 GBA|1 GFE D2 A:|2 GFE D d|
efg efg|dBG AGE|aga aga|bge e2 d|efg efg|dBG AGE|
agf gba|gfe d B/c/d|efg efg|dBG AGE|aga aga|
bge e2 B|def gba|gfe d2 c|~B3 GBA|GFE D B/c/d||

